src/img/about_star2.svg

<svg width="330" height="329" viewBox="0 0 330 329" fill="none" xmlns="http://www.w3.org/2000/svg">
<g clip-path="url(#clip0_76_126)">
<path d="M209.395 281.617L164.791 174.796L138.197 287.402L158.352 173.463L75.1436 253.766L153.664 168.868L40.2419 191.357L152.206 162.459L44.5827 120.007L154.426 156.285L86.7828 62.3615L159.646 152.305L153.443 36.7192L166.183 151.774L223.396 51.2309L171.979 154.863L274.448 101.286L175.178 160.583L290.379 170.991L174.786 167.137L266.121 238.211L170.912 172.436L209.395 281.617Z" fill="black"/>
</g>
<defs>
<clipPath id="clip0_76_126">
<rect width="250.727" height="249.888" fill="white" transform="translate(0.627739 99.5278) rotate(-23.3348)"/>
</clipPath>
</defs>
</svg>

<svg width="330" height="329" fill="none" xmlns="http://www.w3.org/2000/svg"><g clip-path="url(#a)"><path d="m209.395 281.617-44.604-106.821-26.594 112.606 20.155-113.939-83.208 80.303 78.52-84.898-113.422 22.489 111.964-28.898-107.623-42.452 109.843 36.278-67.643-93.923 72.863 89.943-6.203-115.586 12.74 115.055 57.213-100.543-51.417 103.632 102.469-53.577-99.27 59.297 115.201 10.408-115.593-3.854 91.335 71.074-95.209-65.775 38.483 109.181Z" fill="#000"/></g><defs><clipPath id="a"><path fill="#fff" transform="rotate(-23.335 241.305 48.244)" d="M0 0h250.727v249.888H0z"/></clipPath></defs></svg>
